X: 23486
T: Lewis Proudlock's
R: hornpipe
M: 4/4
K: Gmajor
|:z D|G2 GB A2 Ac|Bdge d3 c|BdBG AcAF|G2 G>F G2:|
Bc|d>edc B2 B2|c>dcB A2 A2|d>edc B2 B2|c>dec AcBA|
G2 GB A2 Ac|Bdge d3 c|BdBG AcAF|G2 G>F G2||

